X: 165
U:~=!turn!
M:C
L:1/8
K:Bb
f |\
dfBf dfbf | (d/4e/4Lf3/2) B>d cFFe | dfBf dfbd | ced>c dBBf |
dfBf dfbf | (d/4e/4Lf3/2) B>d cFFf | geBg fdBf | ecFe dBB |]


